src/assets/outline/DirectNormal.svg

<svg width="24" height="24" viewBox="0 0 24 24"  xmlns="http://www.w3.org/2000/svg">
<path d="M15 22.75H9C3.57 22.75 1.25 20.43 1.25 15V9C1.25 3.57 3.57 1.25 9 1.25H15C20.43 1.25 22.75 3.57 22.75 9V15C22.75 20.43 20.43 22.75 15 22.75ZM9 2.75C4.39 2.75 2.75 4.39 2.75 9V15C2.75 19.61 4.39 21.25 9 21.25H15C19.61 21.25 21.25 19.61 21.25 15V9C21.25 4.39 19.61 2.75 15 2.75H9Z" />
<path d="M13.7602 17.75H10.2302C9.13023 17.75 8.26023 17.21 7.77023 16.23L6.88023 14.44C6.67023 14.01 6.24023 13.75 5.76023 13.75H1.99023C1.58023 13.75 1.24023 13.41 1.24023 13C1.24023 12.59 1.59023 12.25 2.00023 12.25H5.76023C6.81024 12.25 7.75024 12.83 8.22023 13.77L9.11023 15.56C9.34023 16.02 9.71023 16.25 10.2302 16.25H13.7602C14.2402 16.25 14.6702 15.99 14.8802 15.56L15.7702 13.77C16.2402 12.83 17.1802 12.25 18.2302 12.25H21.9702C22.3802 12.25 22.7202 12.59 22.7202 13C22.7202 13.41 22.3802 13.75 21.9702 13.75H18.2302C17.7502 13.75 17.3202 14.01 17.1102 14.44L16.2202 16.23C15.7502 17.17 14.8102 17.75 13.7602 17.75Z" />
</svg>

<?xml version="1.0" encoding="UTF-8"?>
<svg width="24" height="24" viewBox="0 0 24 24" xmlns="http://www.w3.org/2000/svg">
 <path d="m15 22.75h-6c-5.43 0-7.75-2.32-7.75-7.75v-6c0-5.43 2.32-7.75 7.75-7.75h6c5.43 0 7.75 2.32 7.75 7.75v6c0 5.43-2.32 7.75-7.75 7.75zm-6-20c-4.61 0-6.25 1.64-6.25 6.25v6c0 4.61 1.64 6.25 6.25 6.25h6c4.61 0 6.25-1.64 6.25-6.25v-6c0-4.61-1.64-6.25-6.25-6.25h-6z"/>
 <path d="m13.76 17.75h-3.53c-1.1 0-1.97-0.54-2.46-1.52l-0.89-1.79c-0.21-0.43-0.64-0.69-1.12-0.69h-3.77c-0.41 0-0.75-0.34-0.75-0.75s0.35-0.75 0.76-0.75h3.76c1.05 0 1.99 0.58 2.46 1.52l0.89 1.79c0.23 0.46 0.6 0.69 1.12 0.69h3.53c0.48 0 0.91-0.26 1.12-0.69l0.89-1.79c0.47-0.94 1.41-1.52 2.46-1.52h3.74c0.41 0 0.75 0.34 0.75 0.75s-0.34 0.75-0.75 0.75h-3.74c-0.48 0-0.91 0.26-1.12 0.69l-0.89 1.79c-0.47 0.94-1.41 1.52-2.46 1.52z"/>
</svg>
